src/images/apple-watch.svg

<svg width="117" height="25" fill="none" xmlns="http://www.w3.org/2000/svg"><path fill-rule="evenodd" clip-rule="evenodd" d="M15.2126 6.51992c-2.0592-.14769-3.8061 1.11695-4.7797 1.11695-.98907 0-2.5137-1.08511-4.13032-1.05681-2.12209.03183-4.07933 1.19919-5.17316 3.04574-2.20497 3.717-.562859 9.223 1.58473 12.2369 1.05012 1.4751 2.30243 3.1342 3.94819 3.0741 1.58474-.0611 2.18311-.9967 4.09756-.9967 1.9135 0 2.4536.9967 4.1285.9648 1.7041-.0292 2.7851-1.5016 3.8271-2.9847 1.2067-1.7095 1.7031-3.3641 1.7322-3.4543-.0382-.0124-3.3234-1.239-3.3561-4.9135-.0292-3.0714 2.5829-4.54919 2.7022-4.62083-1.4836-2.11981-3.7742-2.35328-4.5812-2.41165zM97.5088 18.5172v.3254c0 3.2076-2.4162 6.0774-7.2652 6.0774-4.8353 0-7.7096-2.9476-7.7096-8.099v-2.1517c0-5.09833 2.888-8.13788 7.7224-8.13788 4.5392 0 7.2524 2.77866 7.2524 6.24718v.1821h-3.6403c0-1.7599-1.1549-3.32517-3.5857-3.32517-2.5921 0-3.8954 1.68207-3.8954 5.03377v2.1517c0 3.3906 1.2906 4.9692 3.9218 4.9692 2.6194 0 3.5593-1.4353 3.5593-3.273h3.6403zm-66.2001 1.017h.0537l3.2642-12.71537h3.8544l3.2769 12.71537h.0537l3.0365-12.71537h4.0557L43.8135 24.621h-3.8553l-3.3707-12.1688h-.0674L33.1484 24.621h-3.827l-5.104-17.80217h4.0566l3.0347 12.71537zm74.0433-5.5688h7.494V6.81883h3.815V24.621h-3.815v-7.5904h-7.494v7.5904h-3.8V6.81883h3.8v7.14657zM80.0758 6.81883v3.07758h-5.4655V24.621h-3.7879V9.89641h-5.4528V6.81883h14.7062zm-20.536 0l5.8963 17.80137h-4.0702l-1.307-4.4864H54.26l-1.3279 4.4864h-3.8006l5.91-17.80137h4.4983zm-.276 10.57697l-2.0602-7.0687h-.04l-2.0921 7.0687h4.1923zM13.8583 4.62473c-.8798.97987-2.2651 1.72539-3.6248 1.62369-.1931-1.39375.5173-2.84765 1.326-3.75677.9026-1.02409 2.4245-1.790834 3.6832-1.838589.1621 1.420289-.4272 2.851179-1.3015 3.875279l-.041.04864-.0419.04775z" fill="#D6DAE5"/></svg>

<svg width="117" height="25" viewBox="0 0 117 25" fill="none" xmlns="http://www.w3.org/2000/svg">
<path fill-rule="evenodd" clip-rule="evenodd" d="M15.2126 6.51992C13.1534 6.37223 11.4065 7.63687 10.4329 7.63687C9.44383 7.63687 7.9192 6.55176 6.30258 6.58006C4.18049 6.61189 2.22325 7.77925 1.12942 9.6258C-1.07555 13.3428 0.566561 18.8488 2.71415 21.8627C3.76427 23.3378 5.01658 24.9969 6.66234 24.9368C8.24708 24.8757 8.84545 23.9401 10.7599 23.9401C12.6734 23.9401 13.2135 24.9368 14.8884 24.9049C16.5925 24.8757 17.6735 23.4033 18.7155 21.9202C19.9222 20.2107 20.4186 18.5561 20.4477 18.4659C20.4095 18.4535 17.1243 17.2269 17.0916 13.5524C17.0624 10.481 19.6745 9.00321 19.7938 8.93157C18.3102 6.81176 16.0196 6.57829 15.2126 6.51992ZM97.5088 18.5172V18.8426C97.5088 22.0502 95.0926 24.92 90.2436 24.92C85.4083 24.92 82.534 21.9724 82.534 16.821V14.6693C82.534 9.57097 85.422 6.53142 90.2564 6.53142C94.7956 6.53142 97.5088 9.31008 97.5088 12.7786V12.9607H93.8685C93.8685 11.2008 92.7136 9.63553 90.2828 9.63553C87.6907 9.63553 86.3874 11.3176 86.3874 14.6693V16.821C86.3874 20.2116 87.678 21.7902 90.3092 21.7902C92.9286 21.7902 93.8685 20.3549 93.8685 18.5172H97.5088ZM31.3087 19.5342H31.3624L34.6266 6.81883H38.481L41.7579 19.5342H41.8116L44.8481 6.81883H48.9038L43.8135 24.621H39.9582L36.5875 12.4522H36.5201L33.1484 24.621H29.3214L24.2174 6.81883H28.274L31.3087 19.5342ZM105.352 13.9654H112.846V6.81883H116.661V24.621H112.846V17.0306H105.352V24.621H101.552V6.81883H105.352V13.9654ZM80.0758 6.81883V9.89641H74.6103V24.621H70.8224V9.89641H65.3696V6.81883H80.0758ZM59.5398 6.81883L65.4361 24.6202H61.3659L60.0589 20.1338H54.26L52.9321 24.6202H49.1315L55.0415 6.81883H59.5398ZM59.2638 17.3958L57.2036 10.3271H57.1636L55.0715 17.3958H59.2638ZM13.8583 4.62473C12.9785 5.6046 11.5932 6.35012 10.2335 6.24842C10.0404 4.85467 10.7508 3.40077 11.5595 2.49165C12.4621 1.46756 13.984 0.700816 15.2427 0.653061C15.4048 2.07335 14.8155 3.50424 13.9412 4.52834L13.9002 4.57698L13.8583 4.62473Z" fill="#D6DAE5"/>
</svg>
